images/linkedin2.svg

<svg width="800" height="800" viewBox="0 0 20 20" xmlns="http://www.w3.org/2000/svg"><path d="M144 7339h-4v-6.999c0-1.92-.847-2.991-2.366-2.991-1.653 0-2.634 1.116-2.634 2.991V7339h-4v-13h4v1.462s1.255-2.202 4.083-2.202c2.829 0 4.917 1.726 4.917 5.298V7339Zm-17.558-15.079a2.451 2.451 0 0 1-2.442-2.461 2.451 2.451 0 0 1 2.442-2.46 2.451 2.451 0 0 1 2.441 2.46 2.45 2.45 0 0 1-2.441 2.461ZM124 7339h5v-13h-5v13Z" style="fill:#fff" transform="translate(-124 -7319)" fill="#000" fill-rule="evenodd"/></svg>

<?xml version="1.0" encoding="UTF-8" standalone="no"?>
<!-- Uploaded to: SVG Repo, www.svgrepo.com, Generator: SVG Repo Mixer Tools -->
<svg width="800px" height="800px" viewBox="0 0 20 20" version="1.1" xmlns="http://www.w3.org/2000/svg" xmlns:xlink="http://www.w3.org/1999/xlink">
    <style>
        path{
        fill: white;
        }
</style>
    <title>linkedin [#161]</title>
    <desc>Created with Sketch.</desc>
    <defs>

</defs>
    <g id="Page-1" stroke="none" stroke-width="1" fill="none" fill-rule="evenodd">
        <g id="Dribbble-Light-Preview" transform="translate(-180.000000, -7479.000000)" fill="#000000">
            <g id="icons" transform="translate(56.000000, 160.000000)">
                <path d="M144,7339 L140,7339 L140,7332.001 C140,7330.081 139.153,7329.01 137.634,7329.01 C135.981,7329.01 135,7330.126 135,7332.001 L135,7339 L131,7339 L131,7326 L135,7326 L135,7327.462 C135,7327.462 136.255,7325.26 139.083,7325.26 C141.912,7325.26 144,7326.986 144,7330.558 L144,7339 L144,7339 Z M126.442,7323.921 C125.093,7323.921 124,7322.819 124,7321.46 C124,7320.102 125.093,7319 126.442,7319 C127.79,7319 128.883,7320.102 128.883,7321.46 C128.884,7322.819 127.79,7323.921 126.442,7323.921 L126.442,7323.921 Z M124,7339 L129,7339 L129,7326 L124,7326 L124,7339 Z" id="linkedin-[#161]">

</path>
            </g>
        </g>
    </g>
</svg>
